X:1
T:College Park, 86.88.86
T:College Park, 86.88.86
T:M. A. Rublee, 1879
T:Public Domain Courtesy of the Cyber Hymnal™
C:M. A. Rublee, 1879
Z:Public Domain
Z:Courtesy of the Cyber Hymnal™
%%score 1 ( 2 3 )
L:1/8
Q:1/4=93
M:3/4
K:Bb
V:1 treble 
V:2 bass 
V:3 bass 
V:1
 [DF][DF] [Fd] | [Ec]3 [EF] [EF][Ec] | [DB]4 [FB]2 | [Fc]3 [Fd] [Ge][EG] | %4
 [EG]2 !fermata![DF][FA] [FA][FB] | [Fc]3 [FB] [FB]>[FA] | [FA]3 [DB] [DB][Ec] | %7
 [Fd]3 [Ec] [Ec]>[DB] | [DB]4 F2 | [EG]>[EG] [EG][EA] [DB][Fc] | [Fd]4 [_Ad]2 | %11
 [Ge]>[EG] [EG]2 [EA]2 | [DB]3 |] %13
V:2
 [B,,B,][B,,B,] [B,,B,] | [F,A,]3 [F,A,] [F,A,][F,A,] | [B,,B,]4 [D,B,]2 | %3
 [F,A,]3 B, [E,B,][E,B,] | !fermata![B,,B,]3 [F,E] [F,E][F,D] | [F,E]3 [F,D] [F,D]>[F,C] | %6
 [F,C]3 B, B,B, | B,3 [F,A,] [F,A,]>[B,,B,] | [B,,B,]4 [D,B,]2 | %9
 [E,B,]>[E,B,] [E,B,][C,C] [D,B,][C,A,] | [B,,B,]4 [B,,B,]2 | [E,B,]>[E,B,] [E,B,]2 F,2 | %12
 [B,,F,]3 |] %13
V:3
 x3 | x6 | x6 | x3 B, x2 | x6 | x6 | x3 B, B,B, | B,3 x3 | x6 | x6 | x6 | x4 F,2 | x3 |] %13

